svg/OSM-icons/power #8e7489 °ffffff !label=enpower supply,deStromversorgung/26004;power=line;!#line=busbar;!cables=;!voltage=;!label=enbusbar,deSammel- schiene.svg

<svg xmlns="http://www.w3.org/2000/svg" viewBox="0 0 580 580" enable-background="new 0 0 580 580"><path fill="#111" stroke="#eee" stroke-width="3.408" d="m66.28 1.768c-41.34 0-64.57 21.371-64.57 65.04v450.12c0 40.844 20.895 62.23 62.19 62.23h452.02c41.31 0 62.23-20.315 62.23-62.23v-450.12c0-42.602-20.923-65.04-63.52-65.04-.003 0-448.5-.143-448.35 0z"/><g fill="#fff"><path d="m48.51 324.74v203.99h482.98v-203.99h-482.98m48.34 132.74c-16.982 0-30.749-13.766-30.749-30.748 0-16.98 13.767-30.748 30.749-30.748s30.749 13.768 30.749 30.748c-.0001 16.983-13.767 30.748-30.749 30.748m83.09 20.828c-10.355 0-18.749-8.395-18.749-18.75 0-10.354 8.394-18.748 18.749-18.748s18.749 8.395 18.749 18.748c0 10.356-8.394 18.75-18.749 18.75m0-65.65c-10.355 0-18.749-8.394-18.749-18.748 0-10.355 8.394-18.75 18.749-18.75s18.749 8.395 18.749 18.75c0 10.354-8.394 18.748-18.749 18.748m55.03 65.65c-10.355 0-18.749-8.395-18.749-18.75 0-10.354 8.394-18.748 18.749-18.748s18.749 8.395 18.749 18.748c0 10.356-8.394 18.75-18.749 18.75m0-65.65c-10.355 0-18.749-8.394-18.749-18.748 0-10.355 8.394-18.75 18.749-18.75s18.749 8.395 18.749 18.75c0 10.354-8.394 18.748-18.749 18.748m55.03 65.65c-10.355 0-18.749-8.395-18.749-18.75 0-10.354 8.394-18.748 18.749-18.748 10.355 0 18.75 8.395 18.75 18.748 0 10.356-8.395 18.75-18.75 18.75m0-65.65c-10.355 0-18.749-8.394-18.749-18.748 0-10.355 8.394-18.75 18.749-18.75 10.355 0 18.75 8.395 18.75 18.75 0 10.354-8.395 18.748-18.75 18.748m55.03 65.65c-10.355 0-18.75-8.395-18.75-18.75 0-10.354 8.395-18.748 18.75-18.748s18.75 8.395 18.75 18.748c0 10.356-8.394 18.75-18.75 18.75m0-65.65c-10.355 0-18.75-8.394-18.75-18.748 0-10.355 8.395-18.75 18.75-18.75s18.75 8.395 18.75 18.75c0 10.354-8.394 18.748-18.75 18.748m55.03 65.65c-10.355 0-18.75-8.395-18.75-18.75 0-10.354 8.395-18.748 18.75-18.748s18.75 8.395 18.75 18.748c0 10.356-8.394 18.75-18.75 18.75m0-65.65c-10.355 0-18.75-8.394-18.75-18.748 0-10.355 8.395-18.75 18.75-18.75s18.75 8.395 18.75 18.75c0 10.354-8.394 18.748-18.75 18.748m85.28 44.826c-16.982 0-30.749-13.766-30.749-30.748 0-16.98 13.767-30.748 30.749-30.748 16.981 0 30.748 13.768 30.748 30.748 0 16.983-13.767 30.748-30.748 30.748"/><path d="m348.27 145.15l-83.03 7.83 41.37-108.82-34.31-11.189-35.49 129.68-5.08 18.56 17.69-3.5 72.75-13.6-26.17 88.46-16.93-16.31 2.34 68.72 47.59-49.63-22.17.81z"/></g></svg>

<?xml version="1.0" encoding="utf-8"?>
<!-- Generator: Adobe Illustrator 15.0.0, SVG Export Plug-In . SVG Version: 6.00 Build 0)  -->
<!DOCTYPE svg PUBLIC "-//W3C//DTD SVG 1.1//EN" "http://www.w3.org/Graphics/SVG/1.1/DTD/svg11.dtd">
<svg version="1.1" xmlns="http://www.w3.org/2000/svg" xmlns:xlink="http://www.w3.org/1999/xlink" x="0px" y="0px" width="580px"
	 height="580px" viewBox="0 0 580 580" enable-background="new 0 0 580 580" xml:space="preserve">
<g id="Layer_1">
	<g id="Layer_2">
		<g id="g1327">
			<path id="path1329" fill="#111111" stroke="#EEEEEE" stroke-width="3.408" d="M66.275,1.768
				c-41.335,0-64.571,21.371-64.571,65.036v450.123c0,40.844,20.895,62.229,62.192,62.229h452.024
				c41.307,0,62.229-20.315,62.229-62.229V66.804c0-42.602-20.923-65.036-63.521-65.036C514.625,1.768,66.133,1.625,66.275,1.768z"
				/>
		</g>
	</g>
</g>
<g id="Layer_2_1_">
	<path fill="#FFFFFF" d="M48.511,324.74v203.99h482.977V324.74H48.511z M96.853,457.482c-16.982,0-30.749-13.766-30.749-30.748
		c0-16.98,13.767-30.748,30.749-30.748s30.749,13.768,30.749,30.748C127.601,443.717,113.835,457.482,96.853,457.482z
		 M179.946,478.31c-10.355,0-18.749-8.395-18.749-18.75c0-10.354,8.394-18.748,18.749-18.748s18.749,8.395,18.749,18.748
		C198.695,469.916,190.301,478.31,179.946,478.31z M179.946,412.656c-10.355,0-18.749-8.394-18.749-18.748
		c0-10.355,8.394-18.75,18.749-18.75s18.749,8.395,18.749,18.75C198.695,404.262,190.301,412.656,179.946,412.656z M234.973,478.31
		c-10.355,0-18.749-8.395-18.749-18.75c0-10.354,8.394-18.748,18.749-18.748s18.749,8.395,18.749,18.748
		C253.722,469.916,245.328,478.31,234.973,478.31z M234.973,412.656c-10.355,0-18.749-8.394-18.749-18.748
		c0-10.355,8.394-18.75,18.749-18.75s18.749,8.395,18.749,18.75C253.722,404.262,245.328,412.656,234.973,412.656z M290,478.31
		c-10.355,0-18.749-8.395-18.749-18.75c0-10.354,8.394-18.748,18.749-18.748c10.355,0,18.75,8.395,18.75,18.748
		C308.75,469.916,300.355,478.31,290,478.31z M290,412.656c-10.355,0-18.749-8.394-18.749-18.748c0-10.355,8.394-18.75,18.749-18.75
		c10.355,0,18.75,8.395,18.75,18.75C308.75,404.262,300.355,412.656,290,412.656z M345.027,478.31
		c-10.355,0-18.75-8.395-18.75-18.75c0-10.354,8.395-18.748,18.75-18.748s18.75,8.395,18.75,18.748
		C363.777,469.916,355.383,478.31,345.027,478.31z M345.027,412.656c-10.355,0-18.75-8.394-18.75-18.748
		c0-10.355,8.395-18.75,18.75-18.75s18.75,8.395,18.75,18.75C363.777,404.262,355.383,412.656,345.027,412.656z M400.054,478.31
		c-10.355,0-18.75-8.395-18.75-18.75c0-10.354,8.395-18.748,18.75-18.748s18.75,8.395,18.75,18.748
		C418.804,469.916,410.41,478.31,400.054,478.31z M400.054,412.656c-10.355,0-18.75-8.394-18.75-18.748
		c0-10.355,8.395-18.75,18.75-18.75s18.75,8.395,18.75,18.75C418.804,404.262,410.41,412.656,400.054,412.656z M485.334,457.482
		c-16.982,0-30.749-13.766-30.749-30.748c0-16.98,13.767-30.748,30.749-30.748c16.981,0,30.748,13.768,30.748,30.748
		C516.082,443.717,502.315,457.482,485.334,457.482z"/>
	<polygon fill="#FFFFFF" points="348.268,145.145 265.239,152.978 306.608,44.157 272.303,32.971 236.811,162.652 231.731,181.212 
		249.422,177.711 322.167,164.107 296.002,252.572 279.075,236.26 281.412,304.975 328.999,255.348 306.829,256.159 	"/>
</g>
</svg>
